X: 7475
T: Cnocán An Teampaill
R: jig
M: 6/8
K: Dmixolydian
|:cAG A3|ABG A2d|cAG A3|ABA GED:|
|:EDE c2E|c2E GED|EDE cde|dcA GED:|

